svg/Outline/play-skip-back-circle.svg

<svg viewBox="0 0 24 24" xmlns="http://www.w3.org/2000/svg" width="24" height="24"><path d="M15 7.33c.41.03.79.24 1.04.57.19.25.24.55.26.8q.03.38.02.93v4.8q0 .55-.02.94c-.02.24-.07.54-.26.8-.25.32-.63.53-1.04.57-.32.02-.6-.1-.82-.2q-.34-.19-.8-.5L9.6 13.66l-.37-.23v2.18a1 1 0 0 1-2 0V8.37a1 1 0 0 1 2 0v2.27l.37-.23 3.78-2.4q.46-.3.8-.48c.22-.11.5-.23.82-.2"/><path fill-rule="evenodd" d="M12 1A11 11 0 1 1 12 23A11 11 0 0 1 12 1M12 2.5A9.5 9.5 0 1 0 12 21.5A9.5 9.5 0 0 0 12 2.5" clip-rule="evenodd"/></svg>

<svg viewBox="0 0 24 24" xmlns="http://www.w3.org/2000/svg" width="24" height="24"><path d="M15 7.33C15.41 7.36 15.79 7.57 16.04 7.9C16.23 8.15 16.28 8.45 16.3 8.7Q16.33 9.08 16.32 9.63L16.32 14.43Q16.32 14.98 16.3 15.37C16.28 15.61 16.23 15.91 16.04 16.17C15.79 16.49 15.41 16.7 15 16.74C14.68 16.76 14.4 16.64 14.18 16.54Q13.84 16.35 13.38 16.04L9.23 13.43L9.23 15.61A1 1 0 0 1 7.23 15.61L7.23 8.37A1 1 0 0 1 9.23 8.37L9.23 10.64L13.38 8.01Q13.84 7.71 14.18 7.53C14.4 7.42 14.68 7.3 15 7.33"/><path fill-rule="evenodd" d="M12 1A11 11 0 1 1 12 23A11 11 0 0 1 12 1M12 2.5A9.5 9.5 0 1 0 12 21.5A9.5 9.5 0 0 0 12 2.5" clip-rule="evenodd"/></svg>
